X: 223
%
U:~=!turn!
T: Hatton Burn
T: Tarbolton Lodge
C:
O:Scotland
B:Keith Norman MacDonald : "The Skye collection of the best reels & strathspeys extant" : 1887
Z:Ralph Palmer
R:Reel
M:C
L:1/8
K:E aeolian
F | Eee^d e2 (BA) | GBAF GEEF | Ddd^c d2 (AG) | FdAG FDDF | Eee^d efga |
fedf eBBA | GABG FGAF | BGAF GEE || f | gfef gebe | gebe geef |
defg adfd | ABAG FDDF | G2 BG F2 AF | Eeef gefd | BcdB AGFA | BGAF GEE |]


